X:198
T: Die brave Stiefmutter
N: Q3121A
O: Osteuropa, Tschechoslowakei, Maehren
N: Melodievergleich zu Q0121, anderes Lied.
R: geistlich
M: 3/4
L: 1/8
K: F
F2 | c4BA | G4A2 | B4AG | G6 |
G2G2F2 | E2G4 | E2D2E2 | C6 |
C2D2E2 | F4B2 | A2G2A2 | F4

@@@ Tune index: 1491
